packages/core/src/svgs/tokens/branded/CRWNY.svg

<svg width="24" height="24" viewBox="0 0 24 24" fill="none" xmlns="http://www.w3.org/2000/svg">
<path d="M4.75849 8.33557C5.02498 8.33557 5.25152 8.50215 5.34479 8.74204C5.34479 8.74204 7.90321 15.2513 8.54949 15.2513C9.00924 15.2513 11.2611 9.77476 11.2611 9.77476C11.3082 9.66111 11.3876 9.56395 11.4894 9.49524C11.5914 9.42653 11.7113 9.38937 11.8341 9.38828H12.1739C12.427 9.38828 12.6537 9.54157 12.747 9.77476C12.747 9.77476 14.9988 15.2513 15.4585 15.2513C16.1049 15.2513 18.67 8.74204 18.67 8.74204C18.7566 8.50215 18.9898 8.34224 19.2495 8.33557H21.3683C21.828 8.33557 22.1344 8.83531 21.9412 9.28164C21.9412 9.28164 21.0485 13.7056 16.4912 21.2676C16.378 21.4941 16.1581 21.6407 15.9117 21.6607H15.6185C15.3786 21.6607 15.3386 21.6607 15.0588 21.2876C14.9058 21.0714 14.7547 20.8537 14.6058 20.6347L14.2459 20.1016C13.0933 18.3693 12.1072 16.6772 12.1072 16.6772C12.1072 16.6506 12.0968 16.6252 12.078 16.6064C12.0592 16.5876 12.0339 16.5772 12.0073 16.5772C11.9809 16.5772 11.9554 16.5876 11.9367 16.6064C11.9179 16.6252 11.9075 16.6506 11.9075 16.6772C11.9075 16.6772 10.4084 19.2356 8.95592 21.2876C8.67608 21.6607 8.62944 21.6607 8.38958 21.6607H8.09643C7.84992 21.6407 7.63005 21.4874 7.52345 21.2676C2.97292 13.7056 2.07347 9.27495 2.07347 9.27495C1.88027 8.83531 2.18674 8.33557 2.64645 8.33557H4.75849Z" fill="white"/>
<path d="M12.6334 2.33926C12.7867 2.33926 12.9266 2.41255 13.0132 2.53914L13.7528 3.63846C13.8033 3.71441 13.8336 3.80209 13.8406 3.89308C13.8476 3.98407 13.8311 4.07534 13.7927 4.15814L12.1137 6.95642C12.1085 6.96989 12.0994 6.98152 12.0875 6.98982C12.0757 6.99813 12.0617 7.00273 12.0472 7.00305C12.0334 7.0033 12.0198 6.9997 12.008 6.99262C11.9964 6.98555 11.9867 6.97532 11.9805 6.96308L10.3149 4.16481C10.2756 4.08256 10.2579 3.9916 10.2638 3.90062C10.2695 3.80963 10.2986 3.72167 10.3482 3.64513L11.081 2.54581C11.1743 2.41255 11.3142 2.34593 11.4675 2.33926H12.6334ZM2.43973 3.05882L3.59901 3.91163C3.82555 4.07819 3.89883 4.398 3.77891 4.66449L2.66625 6.8165C2.60629 6.93642 2.51302 7.00305 2.35311 7.00305C2.23319 6.97641 2.13991 6.82982 2.13324 6.68991C2.13324 6.68991 2.07328 5.97702 2.02665 5.11089C2.00667 4.79108 2 4.45796 2 4.16481V3.80503C2 3.51188 2.01332 3.31199 2.01332 3.31199C2.00667 3.19874 2.04664 3.09879 2.14658 3.0455C2.19139 3.01878 2.24305 3.00581 2.29516 3.00818C2.34727 3.01054 2.39753 3.02815 2.43973 3.05882ZM21.5413 3.05882C21.6279 2.99219 21.7412 2.99219 21.8345 3.0455C21.9278 3.09879 21.9876 3.20539 21.9811 3.31199L21.9876 3.89831V4.16481C21.9876 4.45796 21.9876 4.79775 21.9677 5.11755C21.9144 5.98369 21.8544 6.69658 21.8544 6.69658C21.8544 6.82982 21.7611 6.97641 21.6346 7.00305C21.508 7.0297 21.3813 6.93642 21.3215 6.8165L20.2088 4.66449C20.1507 4.5363 20.1376 4.39229 20.1715 4.25571C20.2053 4.11912 20.2842 3.99791 20.3954 3.91163L21.5413 3.05882Z" fill="url(#paint0_linear_364_11477)"/>
<defs>
<linearGradient id="paint0_linear_364_11477" x1="12.0071" y1="3.19874" x2="12.0071" y2="5.03094" gradientUnits="userSpaceOnUse">
<stop stop-color="#EBD19C"/>
<stop offset="1" stop-color="#DFAF6E"/>
</linearGradient>
</defs>
</svg>

<svg xmlns="http://www.w3.org/2000/svg" width="24" height="24" fill="none" viewBox="0 0 24 24">
    <path fill="#fff" d="M4.758 8.336c.267 0 .494.166.587.406 0 0 2.558 6.51 3.204 6.51.46 0 2.712-5.477 2.712-5.477a.63.63 0 0 1 .573-.387h.34c.253 0 .48.154.573.387 0 0 2.252 5.476 2.712 5.476.646 0 3.211-6.509 3.211-6.509a.63.63 0 0 1 .58-.406h2.118c.46 0 .766.5.573.946 0 0-.892 4.424-5.45 11.986a.71.71 0 0 1-.58.393h-.293c-.24 0-.28 0-.56-.373a42 42 0 0 1-.452-.653l-.36-.533c-1.153-1.733-2.139-3.425-2.139-3.425a.1.1 0 1 0-.2 0s-1.499 2.559-2.951 4.61c-.28.374-.327.374-.566.374h-.294a.7.7 0 0 1-.573-.393c-4.55-7.562-5.45-11.993-5.45-11.993-.193-.44.114-.94.573-.94z"/>
    <path fill="url(#CRWNY__a)" d="M12.633 2.34c.154 0 .294.073.38.2l.74 1.098a.53.53 0 0 1 .04.52l-1.68 2.798a.07.07 0 0 1-.066.047.07.07 0 0 1-.067-.04l-1.665-2.798a.53.53 0 0 1 .033-.52l.733-1.1a.48.48 0 0 1 .386-.206zM2.44 3.058l1.159.853a.62.62 0 0 1 .18.752L2.666 6.817c-.06.12-.153.186-.313.186-.12-.027-.213-.173-.22-.313 0 0-.06-.713-.106-1.58A16 16 0 0 1 2 4.166v-.36c0-.293.013-.493.013-.493-.006-.113.034-.213.134-.266a.27.27 0 0 1 .293.013m19.101 0a.26.26 0 0 1 .293-.014c.094.054.154.16.147.267l.007.586v.267c0 .293 0 .633-.02.953-.054.866-.114 1.579-.114 1.579 0 .133-.093.28-.22.306-.126.027-.253-.067-.312-.187l-1.113-2.152a.625.625 0 0 1 .186-.752z"/>
    <defs>
        <linearGradient id="CRWNY__a" x1="12.007" x2="12.007" y1="3.199" y2="5.031" gradientUnits="userSpaceOnUse">
            <stop stop-color="#EBD19C"/>
            <stop offset="1" stop-color="#DFAF6E"/>
        </linearGradient>
    </defs>
</svg>
